X: 11
T:Denis Murphy's Hornpipe
T:Cronin's Hornpipe
M:4/4
L:1/8
R:hornpipe
N:
K:G
B>A|G>AB>c d2  (3def|g>ag>e d>eg>a|b>ag>e d>BG>A|B>AA>G A>cB>A|\
G>AB>c d2  (3def|g>ag>e d>eg>a|b>ag>e d>BA>B|G2  G>F G2 :|\
|:f>g|a>fd>^c d2  g>b|b>ge>^d e2  g>a|b>ga>f g>ed>B|B>AA>G A>cB>A|\
G>AB>c d2  (3def|g>ag>e d>eg>a|b>ag>e d>BA>B|G2  G>F G2 :|
